X:113
%%etbk:tnset id:40,pos:1,rep:3x,ant:
%%etbk:wsite http://www.thesession.org/tunes/display/2892
%%etbk:video src:ytube,cde:byYDj7NtO20,desc:
%%etbk:color #ffe6e6
%%etbk:pldat 2015-01-24T13:58,2014-12-07T14:05,2014-05-14T15:43,2014-05-01T19:07,2014-02-06T17:46,2013-11-19T16:51,2013-10-04T16:02,2013-10-02T17:29,2013-10-01T17:56,2013-05-21T17:05
T: Rigney's
Z: Piano Box Version by Martin Fleischmann
H: Created 2013-02-19 /  Last Modified 2014-12-07
M: 4/4
L: 1/8
R: reel
K: Dmaj
|: "D"!4!B2!3!A!5!d !4!B!5!d!3!A!2!F | !1!D3D !3!A!1!D!2!F!3!A | !4!BBAd Bd!3!A!2!F | !1!D!2!F!3!AF "A"{A}!2!F!1!EE2 |
"D"!4!BDAd Bd!3!A!2!F | !1!D2DD !5!ADF!1!D | "G"!5!GG!3!EG "D"!4!FE!2!D!1!B, |1 "A"!1!A,!2!B,!3!D!4!E !3!F!1!E!1!E2 :|2  "A"!1!A,!2!B,!3!D!4!E !3!F!1!EE!2!F||
|: "G"!1!GABc !5!d!1!G!3!B!1!G | "D"!5!dd!4!Bd !3!A!2!F!1!D!2!F | "G"!1!GABc !5!d2!3!BB | "D"!1!A!2!FD!2!F "A"{A}F!1!EE!2!F |
"G"!1!GABc !5!d!1!GGG | "D"!5!d2!4!Bd !3!A!2!F!1!D!2!F | "G"!5!G3E "D"!4!FE!2!D!1!B, |1 "A"!1!A,!2!B,!3!D!4!E !3!F!1!EE!2!F:|2 "A"!1!A,!2!B,!3!D!4!E !2!F!1!E!1!E2||


